dist/assets/img/features/2.svg

<svg width="40" height="40" viewBox="0 0 40 40" fill="none" xmlns="http://www.w3.org/2000/svg">
<path d="M28.3332 9.16663C27.9165 4.72219 24.9998 1.66663 19.9998 1.66663C14.9998 1.66663 12.0832 4.7222 11.6665 9.16663" stroke="#16171A" stroke-width="2" stroke-linecap="round" stroke-linejoin="round"/>
<path d="M1 24.1667C1 30.6889 1.90968 34.1821 4.44445 36.1888C5.73531 37.2107 7.54011 37.9244 10.1 38.3747C12.6604 38.8252 15.9002 39 20 39C24.0998 39 27.3396 38.8252 29.9 38.3747C32.4599 37.9244 34.2647 37.2107 35.5555 36.1888C38.0903 34.1821 39 30.6889 39 24.1667C39 20.2839 38.6804 17.4515 37.863 15.3647C36.945 13.0207 35.3733 11.5493 32.6257 10.6286C29.7956 9.6802 25.7598 9.33333 20 9.33333C14.2402 9.33333 10.2044 9.6802 7.3743 10.6286C4.62672 11.5493 3.05501 13.0207 2.13696 15.3647C1.31964 17.4515 1 20.2839 1 24.1667Z" stroke="#16171A" stroke-width="2" stroke-linecap="round" stroke-linejoin="round"/>
</svg>

<svg width="40" height="40" fill="none" xmlns="http://www.w3.org/2000/svg"><path d="M28.333 9.167C27.917 4.722 25 1.667 20 1.667s-7.917 3.055-8.334 7.5M1 24.167c0 6.522.91 10.015 3.444 12.022 1.291 1.022 3.096 1.735 5.656 2.186 2.56.45 5.8.625 9.9.625 4.1 0 7.34-.175 9.9-.625 2.56-.45 4.365-1.164 5.656-2.186C38.09 34.182 39 30.689 39 24.167c0-3.883-.32-6.716-1.137-8.802-.918-2.344-2.49-3.816-5.237-4.736C29.796 9.68 25.76 9.333 20 9.333s-9.796.347-12.626 1.296c-2.747.92-4.319 2.392-5.237 4.736C1.32 17.45 1 20.284 1 24.167z" stroke="#16171A" stroke-width="2" stroke-linecap="round" stroke-linejoin="round"/></svg>
